X: 1
T: Miss Barbara Cunningham
C: Robert MacKintosh
R: strathspey
B: Kerr's Merrie Melodies
Z: 2004 John Chambers <jc:trillian.mit.edu>
M: C
L: 1/8
K: G
B \
| "G"G>g d<B G<d B<G | "C"(3EFG A>G "D7"F<D D>B \
| "G"G>g d<B G<d B<G | "C"E>c "D7"B/A/G/F/ "G"G2 [GG,] :|
g/a/ \
| "G"b<g d<g "C"e<g "G"d<B | "D7"c<a "G"B<g "D7"a>A Ag/a/ \
| "G"b<g d<g "C"e<g "G"d<B | "Am"c<a "D7"B>f "G"g2 G |]
g/a/ \
| "G"b<g "D7"a<f "C"g<e "D7"f<d | "C"e<c "G"d<B "D7"a<A A>B \
| "G"G>D "Em"B<G "Bm"d<B "Am"g<e | "G"d<g "D7"D>F "G"G2 [GG,] |]
%%center Book18/MissBarbaraCunningham_G-JC.abc

%%sep 1 1 500
%%sep 1 1 500

